X:1
T:Title
%%score { ( 1 2 ) | ( 3 4 ) }
L:1/8
M:4/2
K:C
V:1 treble nm="Grand Piano"
V:2 treble 
V:3 bass 
V:4 bass 
V:1
 z8 z4[Q:1/4=220] z2 z F | A4 A3 ^G A4 F3 A | [Ac]4 [Ac]3 [^GB] [Ac]4 [CFA]3 =G | %3
 F4 F3 D F4 F3 [FG] |[M:9/4] [FA]4 [EG]2- [EG][_E^F] [=EG]4- [EG]2 z2 z =F | %5
[M:8/4] A4 A3 ^G A4 F3 A | [Ac]4 [Ac]3 [^GB] [Ac]6 A2 | G4 G3 G c2 c4 c2 |[M:7/4] B3 c e3 d [Ec]6 | %9
[M:2/4] d3 c |[M:8/4] c3 c c3 c c2 A4 A2 | [^CEA]4 [CEA]3 [CEG] [CEA]6 [CEG]2 | F4 F3 D F2 F4 F2 | %13
[M:10/4] [FA]3 [EG] [EG]4 [EG]6 d2- d c3 |[M:8/4] c3 c c3 c c2 A4 A2 | %15
 [^CEA]4 [CEA]3 [CEG] [CEA]6 [CEG]2 | F4 F3 D F2 F4 F2 |[M:7/4] [EG]3 [EG] [EG]4 [FA]6 |] %18
V:2
 z8 z4 C4 | x16 | x16 | x16 |[M:9/4] z6 z6 z2 C4 |[M:8/4] x16 | x16 | x16 |[M:7/4] x14 | %9
[M:2/4] E4 |[M:8/4] x16 | x16 | x16 |[M:10/4] z4 z4 z4 z2 E6 |[M:8/4] x16 | x16 | x16 | %17
[M:7/4] x14 |] %18
V:3
 z8 z4 [F,A,]4 | [F,CF]4 [F,CF]3 [F,B,F] [F,CF]4 [F,A,]3 [F,CF] | F,4 F,3 F, F,4 z2 z [_B,E] | %3
 [D,A,D]4 [D,A,D]3 [D,F,] [D,A,D]4 [D,A,]3 [D,B,] | %4
[M:9/4] [C,C]4 [C,C]2- [C,C][C,C] [C,C]4- [C,C]2 [F,A,]4 | %5
[M:8/4] [F,CF]4 [F,CF]3 [F,B,F] [F,CF]4 [F,A,]3 [F,CF] | F,4 F,3 F, F,6[K:treble] [F,CF]2 | %7
 [G,CE]4 [G,CE]3 [G,CE] [G,CE]2 [G,E]4 [G,E]2 |[M:7/4] [G,D]3 [G,E] G3 F[K:bass] [C,G,]6 | %9
[M:2/4] [C,_B,]4 |[M:8/4] [F,A,F]3 [F,A,F] [F,A,F]3 [F,A,F] [F,A,F]2 [F,CF]4 [F,CF]2 | %11
 A,,4 A,,3 A,, A,,6 A,,2 | [D,D]4 [D,A,D]3 [D,F,] [D,A,D]2 [D,A,D]4 [D,B,]2 | %13
[M:10/4] [C,C]3 [C,C] [C,C]4 [C,C]6 [C,_B,]6 | %14
[M:8/4] [F,A,F]3 [F,A,F] [F,A,F]3 [F,A,F] [F,A,F]2 [F,CF]4 [F,CF]2 | A,,4 A,,3 A,, A,,6 A,,2 | %16
 [D,D]4 [D,A,D]3 [D,F,] [D,A,D]2 [D,A,D]4 [D,A,D]2 |[M:7/4] [C,C]3 [C,C] [C,C]4 [F,C]6 |] %18
V:4
 x16 | x16 | z8 z4 C,4 | x16 |[M:9/4] x18 |[M:8/4] x16 | x14[K:treble] x2 | x16 | %8
[M:7/4] z4 G,4[K:bass] z2 z4 |[M:2/4] x4 |[M:8/4] x16 | x16 | x16 |[M:10/4] x20 |[M:8/4] x16 | %15
 x16 | x16 |[M:7/4] x14 |] %18

